X:1
T:The Kinsale Herring
M:6/8
L:1/8
K:G
 A| BcB A2 B| ABA G2 D| EDE G2 A| BAA A2 A| BcB ABA| ABA G2 D| EDE G2 A|\
 BGG G2 A| GBd d2 d/2d/2| eec d2 B| ccc c2 d| eAA A2 B/2c/2| ded BcB|\
 ABA G2 D| EDE G2 A| BGG G2||
